!!!OTL: 699a. Absage.
!!!ARE: Europa, Mitteleuropa, Deutschland, Brandenburg
!!!SCT: E0699
!!!TXL: @@DE
!!!YEM: Copyright 1995, estate of Helmut Schaffrath.
**kern	**text
*ICvox	*
*M3/4	*
*k[b-]	*
*F:	*
!LO:TX:a:t=Mäßig.	!
!LO:TX:a:t=Aus dem Brandenburgiſchen.	!
{8f	Willſt
8a	du
=1	=1
8aL	mich
8gJ	.
4b-	denn
8e	nicht
8g	mehr
=2	=2
8fL	lie-
8aJ	.
4cc}	-ben,
{8f	ei
8a	ſo
=3	=3
8aL	magſt
8gJ	.
4dd	du's
8cc	laſ-
8e	-ſen
=4	=4
4f	ſein;
4r}	.
{8f	ich
8a	werd
=5	=5
8cc	mich
8a	drum
4ff	nicht
8ddL	be-
8b-J	.
=6	=6
8a/L	-trü-
8ccJ	.
4cc}	-ben
{8f	und
8a	kann
=7	=7
8aL	le-
8gJ	.
4dd	-ben
8cc	ganʒ
8e	al-
=8	=8
4f	-lein.
4r}	.
==	==
!!!AGN: Liebes - Lied, Leid, Klage
!!!ONB: ESAC (Essen Associative Code) Database: ERK2
!!!AMT: simple triple
!!!AIN: vox
!!!EED: Helmut Schaffrath
!!!EEV: 1.0
!!!GTL: Liebeslieder [Neuere (aus dem 18. bis 19. Jahrh.) - Liebesleid] 678-740
!!!URL-scan: https://rosdok.uni-rostock.de/mcrviewer/recordIdentifier/rosdok_ppn745177662/iview2/phys_0502.iview2?x=152.6445073938969&y=777.6246933147777&scale=0.7029437510502773&rotation=0&layout=singlePageLayout
!!!ENC: Anna Maria Matuszewska
!!!EEV: 2024/12/16
*-	*-
